swiss/communes/0012.svg

<?xml version="1.0" encoding="UTF-8" standalone="no"?>
<!-- Created with Inkscape (http://www.inkscape.org/) -->
<svg
   xmlns:svg="http://www.w3.org/2000/svg"
   xmlns="http://www.w3.org/2000/svg"
   xmlns:xlink="http://www.w3.org/1999/xlink"
   version="1.0"
   width="223.86638"
   height="262.22461"
   id="svg2780">
  <defs
     id="defs2782" />
  <g
     transform="translate(-9.8767161,-803.39861)"
     id="layer1">
    <path
       d="M 10.876716,804.39861 L 14.910646,973.84718 C 17.792017,1094.8819 225.82778,1094.8819 228.70917,973.84718 L 232.7431,804.39861 L 10.876716,804.39861 z"
       id="path3282"
       style="fill:#fbe93b;fill-opacity:1;fill-rule:evenodd;stroke:none;stroke-width:1.99999988;stroke-linecap:butt;stroke-miterlimit:4;stroke-dashoffset:0;stroke-opacity:1" />
    <path
       d="M 13.1875,97.4375 L 14.46875,150.59375 L 229.15625,150.59375 L 230.4375,97.4375 L 13.1875,97.4375 z"
       transform="translate(0,804.33069)"
       id="rect2540"
       style="opacity:1;color:#000000;fill:#d63929;fill-opacity:1;fill-rule:evenodd;stroke:#000000;stroke-width:1.00000012px;stroke-linecap:butt;stroke-linejoin:miter;marker:none;marker-start:none;marker-mid:none;marker-end:none;stroke-miterlimit:4;stroke-dasharray:none;stroke-dashoffset:0;stroke-opacity:1;visibility:visible;display:inline;overflow:visible;enable-background:accumulate" />
    <path
       d="M 109.20948,71.701037 L 80.898438,65.69545 L 71.943909,93.216324 L 62.989378,65.695449 L 34.678338,71.701036 L 54.034849,50.185748 L 34.678338,28.670461 L 62.98938,34.676048 L 71.943909,7.1551743 L 80.898439,34.676049 L 109.20948,28.670462 L 89.852968,50.18575 L 109.20948,71.701037 z"
       transform="translate(-1.9759357,803.97802)"
       id="path3319"
       style="fill:#000000;fill-opacity:1;fill-rule:evenodd;stroke:none;stroke-width:1pt;stroke-linecap:butt;stroke-linejoin:miter;stroke-opacity:1" />
    <use
       transform="translate(103.68387,0)"
       id="use3321"
       x="0"
       y="0"
       width="248.03149"
       height="248.03149"
       xlink:href="#path3319" />
    <use
       transform="translate(51.841933,148.84756)"
       id="use3323"
       x="0"
       y="0"
       width="248.03149"
       height="248.03149"
       xlink:href="#path3319" />
    <path
       d="M 10.876716,804.39861 L 14.910646,973.84718 C 17.792017,1094.8819 225.82778,1094.8819 228.70917,973.84718 L 232.7431,804.39861 L 10.876716,804.39861 z"
       id="path3622"
       style="fill:none;fill-opacity:1;fill-rule:evenodd;stroke:#000000;stroke-width:1.99999988;stroke-linecap:butt;stroke-miterlimit:4;stroke-dashoffset:0;stroke-opacity:1" />
  </g>
</svg>

<svg xmlns="http://www.w3.org/2000/svg" xmlns:xlink="http://www.w3.org/1999/xlink" version="1.0" width="223.866" height="262.225"><g transform="translate(-9.877 -803.399)"><path d="m10.877 804.399 4.034 169.448c2.881 121.035 210.917 121.035 213.798 0l4.034-169.448H10.877z" style="fill:#fbe93b;fill-opacity:1;fill-rule:evenodd;stroke:none;stroke-width:1.99999988;stroke-linecap:butt;stroke-miterlimit:4;stroke-dashoffset:0;stroke-opacity:1"/><path d="m13.188 97.438 1.28 53.156h214.688l1.281-53.156H13.188z" transform="translate(0 804.33)" style="opacity:1;color:#000;fill:#d63929;fill-opacity:1;fill-rule:evenodd;stroke:#000;stroke-width:1.00000012px;stroke-linecap:butt;stroke-linejoin:miter;marker:none;marker-start:none;marker-mid:none;marker-end:none;stroke-miterlimit:4;stroke-dasharray:none;stroke-dashoffset:0;stroke-opacity:1;visibility:visible;display:inline;overflow:visible;enable-background:accumulate"/><path d="m109.21 71.701-28.312-6.006-8.954 27.521-8.955-27.52L34.68 71.7l19.356-21.515L34.678 28.67l28.311 6.006 8.955-27.52 8.954 27.52 28.311-6.006-19.356 21.516L109.209 71.7z" transform="translate(-1.976 803.978)" id="a" style="fill:#000;fill-opacity:1;fill-rule:evenodd;stroke:none;stroke-width:1pt;stroke-linecap:butt;stroke-linejoin:miter;stroke-opacity:1"/><use transform="translate(103.684)" width="248.031" height="248.031" xlink:href="#a"/><use transform="translate(51.842 148.848)" width="248.031" height="248.031" xlink:href="#a"/><path d="m10.877 804.399 4.034 169.448c2.881 121.035 210.917 121.035 213.798 0l4.034-169.448H10.877z" style="fill:none;fill-opacity:1;fill-rule:evenodd;stroke:#000;stroke-width:1.99999988;stroke-linecap:butt;stroke-miterlimit:4;stroke-dashoffset:0;stroke-opacity:1"/></g></svg>
